X:1
T:Title
%%score { ( 1 3 ) | ( 2 4 ) }
L:1/8
Q:1/4=114
M:6/4
K:Ab
V:1 treble nm="Grand Piano"
V:3 treble 
V:2 bass 
V:4 bass 
V:1
 [Ec]2 [Fd]2 [Ec]2 [CA]2 [DB]2 [D_c]2 | z6 [CE]6 | [DF]2 [A,DG]2 [A,DA]2 [CE]2 [Fd]2 [Ec]2 | %3
w: DeLoss~Smith * * * * *|||
 z6 [_DB]6 | [Ec]2 [Fd]2 [Ec]2 [CA]2 [DB]2 [=D_c]2 | z6 [Fd]6 | %6
w: |||
 [FA]2 [DFA]2 [D=EB]2 [_Ec]2 [A,CE]2 [=Ed]2 | .c6 z6 | [Ece]6[K:bass][K:treble] [Ede]6[K:bass] | %9
w: |||
 .e12 | [FA]2 [=EG]2 [FA]2 [FB]2 [FA]2 [DF]2 | .A12 | [Ece]6[K:bass][K:treble] [Ede]6[K:bass] | %13
w: ||||
 .e12 | [=DF]2 [DG]2 [DA]2 [Dc]2 [DB]2 [DA]2 | .[DB]12 | [Ece]6[K:bass][K:treble] [Ede]6[K:bass] | %17
w: ||||
 .e12 | e2 c2 B2 A2 B2 c2 | [Fd]6- [Fd]2 z2 [FA]2 | [Ec]2 [DB]2 [CA]2 [Ec]2 [DB]2 [CA]2 | %21
w: ||||
 [CE]2 [_C=D]2 [=CE]2 [Ec]2 [EB]2 [EA]2 | [Ec]6 [DB]6 | A12 |] %24
w: |||
V:2
 A,,2 [E,A,]2 [E,A,]2 A,,2 [E,A,]2 [E,A,]2 | A,,2 E,2 E,2 A,,2 E,2 E,2 | %2
 D,2 F,2 F,2 A,,2 [E,A,]2 [E,A,]2 | B,,2 [F,A,]2 F,2 E,2 G,2 G,2 | %4
 A,,2 [E,A,]2 [E,A,]2 A,,2 [E,A,]2 [E,A,]2 | A,,2 [E,A,]2 [E,A,]2 D,2 F,2 F,2 | %6
 E,2 A,2 A,2 A,,2 E,2 [E,A,]2 | .[E,A,E]4 [E,G,D]2 [A,,E,A,]6 | %8
 [A,,A,]2 A,,2 A,,2 [B,,G,]2 B,,2 B,,2 | .E12 | [D,D]2 [D,D]2 [D,D]2 [D,D]2 [D,D]2 [D,A,]2 | %11
 [A,,A,]2 [C,A,]2 [E,A,]2 [A,C]2 C2 D2 | [A,,A,]2 A,,2 A,,2 [B,,G,]2 B,,2 B,,2 | .E12 | %14
 [B,,A,]2 [B,,G,]2 [B,,F,]2 [B,,F,]2 [B,,F,]2 [B,,F,]2 | .[E,G,]12 | %16
 [A,,A,]2 A,,2 A,,2 [B,,G,]2 B,,2 B,,2 | .E12 | [A,CE]2 [A,E]2 [E,G,D]2 [F,A,C]2 [E,G,E]2 [A,_G]2 | %19
 [D,A,]6- [D,A,]2 z2 [D,A,]2 | [A,,A,]2 [A,,A,]2 [A,,E,]2 [A,,A,]2 [A,,A,]2 [A,,E,]2 | %21
 [A,,A,]2 [A,,F,]2 [A,,E,]2 [A,,A,]2 [B,,G,]2 [C,A,]2 | [E,A,]6 [E,G,]6 | z2 E,2 F,2 E,6 |] %24
V:3
 x12 | [Ec]2 [A,CA]2 [A,DF]2 z2 A,2 A,2 | x12 | [=Dc]2 [DB]2 [A,DA]2 z2 B,2 B,2 | x12 | %5
 [Ec]2 [Ed]2 [_Ge]2 z2 A,2 A,2 | x12 | z2 F,2 B2 [CA]6 | %8
 z2[K:bass] G,2 F,2[K:treble] z2[K:bass] F,2 E,2 | z2 A,2 G,2 A,2 [Ec]2 [EB]2 | x12 | %11
 C2 E2 C2 E2 c2 d2 | z2[K:bass] G,2 F,2[K:treble] z2[K:bass] F,2 E,2 | z2 A,2 G,2 A,2 [Ec]2 [EA]2 | %14
 x12 | x12 | z2[K:bass] G,2 F,2[K:treble] z2[K:bass] F,2 E,2 | z2 A,2 G,2 A,2 [Ec]2 [Ed]2 | x12 | %19
 x12 | x12 | x12 | x12 | [A,C]2 C2 D2 C6 |] %24
V:4
 x12 | x12 | x12 | x12 | x12 | x12 | x12 | x12 | x12 | [E,B,]2 E,2 D,2 C,2 [A,,A,]2 [C,A,]2 | x12 | %11
 x12 | x12 | [E,B,]2 E,2 D,2 C,2 [A,,A,]2 [C,A,]2 | x12 | x12 | x12 | %17
 [E,B,]2 E,2 D,2 C,2 [A,,A,]2 [A,,B,]2 | x12 | x12 | x12 | x12 | x12 | A,,12 |] %24

